X:1
T:[ID 10-57]
T:[ID 10-57]
T:Bezeichnung standardisiert: Walzer Waltzer
T:Urheber unbekannt Datum in der hier transkribierten schriftlichen Quelle: 1799
C:Urheber unbekannt
C:Datum in der hier transkribierten schriftlichen Quelle: 1799
L:1/8
M:3/4
K:G
V:1 treble 
V:1
 d2 | (d2 B2) g2 | (g2 d2) B2 | c2 cdBc | A4 Bc | d2 d2 c2 | B2 B2 A2 | G2 G2 G2 | G4 :: d2 | %10
 d2 fa c'2 | b2 bb b2 | a2 aa a2 | b4 g2 | g4 fg | agfedc | BAGFED | G4 :: D2 | DGBdBG | DGBdBG | %21
 cBAGFE | D4 D2 | DGBdBG | DGBdBG | DFAcAF | G4 :| %27

